src/assets/background/winners.svg

<svg width="393" height="126" viewBox="0 0 393 126" fill="none" xmlns="http://www.w3.org/2000/svg">
<g id="winners">
<rect id="Rectangle 395" width="393" height="126" fill="#F5F1EE"/>
<path id="Vector 129" d="M366 93.1053C369.343 92.7825 370.411 89.5673 370.527 88C370.436 90.386 372.745 93 375 93.1228C371.805 93.2411 370.599 96.8248 370.481 97.8889C370.483 97.9377 370.48 97.9752 370.473 98C370.474 97.9669 370.477 97.9297 370.481 97.8889C370.457 97.0726 369.2 93.1053 366 93.1053Z" fill="url(#paint0_linear_3005_4427)"/>
<path id="Vector 132" d="M80 37.1684C85.2008 36.6519 86.8622 31.5076 87.0428 29C86.9002 32.8175 90.4929 37 94 37.1965C89.03 37.3857 87.1538 43.1197 86.9709 44.8222C86.9731 44.9003 86.9685 44.9604 86.9572 45C86.9593 44.947 86.9639 44.8876 86.9709 44.8222C86.9336 43.5161 84.9772 37.1684 80 37.1684Z" fill="url(#paint1_linear_3005_4427)"/>
<path id="Vector 131" d="M349 42.7211C355.315 42.0432 357.333 35.2912 357.552 32C357.379 37.0105 361.741 42.5 366 42.7579C359.965 43.0062 357.687 50.5321 357.465 52.7666C357.467 52.8692 357.462 52.948 357.448 53C357.451 52.9305 357.456 52.8524 357.465 52.7666C357.419 51.0524 355.044 42.7211 349 42.7211Z" fill="#01E3D6"/>
<path id="Vector 130" d="M20 74.7C25.9438 74.0867 27.8425 67.9778 28.0489 65C27.8859 69.5333 31.9919 74.5 36 74.7333C30.32 74.958 28.1758 81.7671 27.9667 83.7888C27.9693 83.8816 27.964 83.953 27.9511 84C27.9535 83.9371 27.9587 83.8665 27.9667 83.7888C27.9241 82.2379 25.6883 74.7 20 74.7Z" fill="url(#paint2_linear_3005_4427)"/>
<g id="Group 306">
<g id="Group 305">
<path id="Vector 394" d="M256 9H298.929V0H247L256 9Z" fill="url(#paint3_linear_3005_4427)"/>
</g>
<path id="Vector 391" d="M136.929 9H94V0H145.929L136.929 9Z" fill="url(#paint4_linear_3005_4427)"/>
<path id="Vector 391_2" d="M24 21L0 59V0H116L95 21H24Z" fill="url(#paint5_linear_3005_4427)"/>
<path id="Vector 392" d="M369 21L393 59V0H277L298 21H369Z" fill="url(#paint6_linear_3005_4427)"/>
</g>
<g id="Frame 36223">
<path id="WINNERS" d="M103.356 55L109.356 77.5L114.606 55H124.356L114.856 90H105.356L99.3564 68.25L93.3564 90H83.8564L74.3564 55H84.1064L89.3564 77.5L95.3564 55H103.356ZM143.38 90H125.38V83H129.88V62H125.38V55H143.38V62H138.88V83H143.38V90ZM178.376 90H168.876L156.876 69V90H147.876V55H157.376L169.376 76V55H178.376V90ZM214.899 90H205.399L193.399 69V90H184.399V55H193.899L205.899 76V55H214.899V90ZM248.673 90H220.923V55H248.673V62H229.923V68.75H244.673V75.75H229.923V83H248.673V90ZM252.661 55H273.661C277.161 55 279.694 55.8 281.261 57.4C282.861 58.9667 283.661 61.5 283.661 65V69.5C283.661 72.2667 283.194 74.4167 282.261 75.95C281.361 77.4833 279.911 78.5 277.911 79L284.161 90H274.411L268.661 79.5H261.661V90H252.661V55ZM274.661 65C274.661 63 273.661 62 271.661 62H261.661V72.5H271.661C273.661 72.5 274.661 71.5 274.661 69.5V65ZM287.597 82.75C296.731 83.25 302.914 83.5 306.147 83.5C306.914 83.5 307.514 83.2833 307.947 82.85C308.414 82.3833 308.647 81.7667 308.647 81V76.5H297.147C293.647 76.5 291.097 75.7167 289.497 74.15C287.931 72.55 287.147 70 287.147 66.5V65C287.147 61.5 287.931 58.9667 289.497 57.4C291.097 55.8 293.647 55 297.147 55H314.697V62H299.147C297.147 62 296.147 63 296.147 65V66C296.147 68 297.147 69 299.147 69H308.147C311.414 69 313.814 69.7667 315.347 71.3C316.881 72.8333 317.647 75.2333 317.647 78.5V81C317.647 84.2667 316.881 86.6667 315.347 88.2C313.814 89.7333 311.414 90.5 308.147 90.5C306.447 90.5 304.647 90.4667 302.747 90.4L298.147 90.2C294.747 90.0333 291.231 89.8 287.597 89.5V82.75Z" fill="url(#paint7_linear_3005_4427)"/>
</g>
<g id="logo-gradient">
<path d="M193.78 30H199.66L204 42.04L199.66 44L198.81 40.3879L198.81 40.3879L198.12 37.455L198.12 37.455L197.42 34.48L196.078 38.2936L197.595 37.6705L198.285 40.603L190 44L193.443 34.1634L196.37 32.03L193.992 32.5943L194.637 30.7502L193.78 30Z" fill="url(#paint8_linear_3005_4427)"/>
<path d="M203.331 38.5341L202.321 35.7297L204 35.04L203.331 38.5341Z" fill="url(#paint9_linear_3005_4427)"/>
</g>
</g>
<defs>
<linearGradient id="paint0_linear_3005_4427" x1="365.579" y1="93" x2="375.165" y2="93" gradientUnits="userSpaceOnUse">
<stop stop-color="#AB750F"/>
<stop offset="0.516" stop-color="#D8A956"/>
<stop offset="1" stop-color="#AB750F"/>
</linearGradient>
<linearGradient id="paint1_linear_3005_4427" x1="79.3455" y1="37.0001" x2="94.2561" y2="37.0001" gradientUnits="userSpaceOnUse">
<stop stop-color="#AB750F"/>
<stop offset="0.516" stop-color="#D8A956"/>
<stop offset="1" stop-color="#AB750F"/>
</linearGradient>
<linearGradient id="paint2_linear_3005_4427" x1="28" y1="65" x2="28" y2="84" gradientUnits="userSpaceOnUse">
<stop stop-color="#FFA700"/>
<stop offset="1" stop-color="#FF0000"/>
</linearGradient>
<linearGradient id="paint3_linear_3005_4427" x1="289.929" y1="4.50005" x2="246.05" y2="4.50005" gradientUnits="userSpaceOnUse">
<stop stop-color="#6A4500"/>
<stop offset="1" stop-color="#D8A956"/>
</linearGradient>
<linearGradient id="paint4_linear_3005_4427" x1="103" y1="4.50005" x2="146.878" y2="4.50005" gradientUnits="userSpaceOnUse">
<stop stop-color="#6A4500"/>
<stop offset="1" stop-color="#D8A956"/>
</linearGradient>
<linearGradient id="paint5_linear_3005_4427" x1="-5.42276" y1="29.5002" x2="118.122" y2="29.5003" gradientUnits="userSpaceOnUse">
<stop stop-color="#AB750F"/>
<stop offset="0.516" stop-color="#D8A956"/>
<stop offset="1" stop-color="#AB750F"/>
</linearGradient>
<linearGradient id="paint6_linear_3005_4427" x1="398.423" y1="29.5002" x2="274.878" y2="29.5003" gradientUnits="userSpaceOnUse">
<stop stop-color="#AB750F"/>
<stop offset="0.516" stop-color="#D8A956"/>
<stop offset="1" stop-color="#AB750F"/>
</linearGradient>
<linearGradient id="paint7_linear_3005_4427" x1="63.0467" y1="72.5001" x2="323.982" y2="72.5002" gradientUnits="userSpaceOnUse">
<stop stop-color="#AB750F"/>
<stop offset="0.516" stop-color="#D8A956"/>
<stop offset="1" stop-color="#AB750F"/>
</linearGradient>
<linearGradient id="paint8_linear_3005_4427" x1="193.7" y1="33.0451" x2="203.029" y2="42.7504" gradientUnits="userSpaceOnUse">
<stop stop-color="#AB750F"/>
<stop offset="0.484" stop-color="#D8A956"/>
<stop offset="1" stop-color="#AB750F"/>
</linearGradient>
<linearGradient id="paint9_linear_3005_4427" x1="193.7" y1="33.0451" x2="203.029" y2="42.7504" gradientUnits="userSpaceOnUse">
<stop stop-color="#AB750F"/>
<stop offset="0.484" stop-color="#D8A956"/>
<stop offset="1" stop-color="#AB750F"/>
</linearGradient>
</defs>
</svg>

<svg xmlns="http://www.w3.org/2000/svg" width="393" height="126" fill="none" xmlns:v="https://vecta.io/nano"><path fill="#f5f1ee" d="M0 0h393v126H0z"/><path d="M366 93.105c3.343-.323 4.411-3.538 4.527-5.105-.091 2.386 2.218 5 4.473 5.123-3.195.118-4.401 3.702-4.519 4.766a.38.38 0 0 1-.008.111l.008-.111c-.024-.816-1.281-4.784-4.481-4.784z" fill="url(#A)"/><path d="M80 37.168c5.201-.517 6.862-5.661 7.043-8.168-.143 3.818 3.45 8 6.957 8.197-4.97.189-6.846 5.923-7.029 7.626.002.078-.002.138-.014.178a2.69 2.69 0 0 1 .014-.178c-.037-1.306-1.994-7.654-6.971-7.654z" fill="url(#B)"/><path d="M349 42.721c6.315-.678 8.333-7.43 8.552-10.721-.173 5.011 4.189 10.5 8.448 10.758-6.035.248-8.313 7.774-8.535 10.009a.91.91 0 0 1-.017.233c.003-.069.008-.148.017-.233-.046-1.714-2.421-10.045-8.465-10.045z" fill="#01e3d6"/><path d="M20 74.7c5.944-.613 7.843-6.722 8.049-9.7-.163 4.533 3.943 9.5 7.951 9.733-5.68.225-7.824 7.034-8.033 9.055.003.093-.003.164-.016.211.002-.063.008-.133.016-.211C27.924 82.238 25.688 74.7 20 74.7z" fill="url(#C)"/><path d="M256 9h42.929V0H247l9 9z" fill="url(#D)"/><path d="M136.929 9H94V0h51.929l-9 9z" fill="url(#E)"/><path d="M24 21L0 59V0H116L95 21H24Z" fill="url(#F)"/><path d="M369 21l24 38V0H277l21 21h71z" fill="url(#G)"/><path d="M103.356 55l6 22.5 5.25-22.5h9.75l-9.5 35h-9.5l-6-21.75-6 21.75h-9.5l-9.5-35h9.75l5.25 22.5 6-22.5h8zm40.024 35h-18v-7h4.5V62h-4.5v-7h18v7h-4.5v21h4.5v7zm34.996 0h-9.5l-12-21v21h-9V55h9.5l12 21V55h9v35zm36.523 0h-9.5l-12-21v21h-9V55h9.5l12 21V55h9v35zm33.774 0h-27.75V55h27.75v7h-18.75v6.75h14.75v7h-14.75V83h18.75v7zm3.988-35h21c3.5 0 6.033.8 7.6 2.4 1.6 1.567 2.4 4.1 2.4 7.6v4.5c0 2.767-.467 4.917-1.4 6.45-.9 1.533-2.35 2.55-4.35 3.05l6.25 11h-9.75l-5.75-10.5h-7V90h-9V55zm22 10c0-2-1-3-3-3h-10v10.5h10c2 0 3-1 3-3V65zm12.936 17.75c9.134.5 15.317.75 18.55.75.767 0 1.367-.217 1.8-.65.467-.467.7-1.083.7-1.85v-4.5h-11.5c-3.5 0-6.05-.783-7.65-2.35-1.566-1.6-2.35-4.15-2.35-7.65V65c0-3.5.784-6.033 2.35-7.6 1.6-1.6 4.15-2.4 7.65-2.4h17.55v7h-15.55c-2 0-3 1-3 3v1c0 2 1 3 3 3h9c3.267 0 5.667.767 7.2 2.3s2.3 3.933 2.3 7.2V81c0 3.267-.766 5.667-2.3 7.2s-3.933 2.3-7.2 2.3c-1.7 0-3.5-.033-5.4-.1l-4.6-.2a317.03 317.03 0 0 1-10.55-.7v-6.75z" fill="url(#H)"/><path d="M193.78 30h5.88L204 42.04 199.66 44l-.85-3.612h0l-.69-2.933h0l-.7-2.975-1.342 3.814 1.517-.623.69 2.933L190 44l3.443-9.837 2.927-2.133-2.378.564.645-1.844-.857-.75z" fill="url(#I)"/><path d="M203.331 38.534l-1.01-2.804 1.679-.69-.669 3.494z" fill="url(#I)"/><defs><linearGradient id="A" x1="365.579" y1="93" x2="375.165" y2="93" href="#J"><stop stop-color="#ab750f"/><stop offset=".516" stop-color="#d8a956"/><stop offset="1" stop-color="#ab750f"/></linearGradient><linearGradient id="B" x1="79.346" y1="37" x2="94.256" y2="37" href="#J"><stop stop-color="#ab750f"/><stop offset=".516" stop-color="#d8a956"/><stop offset="1" stop-color="#ab750f"/></linearGradient><linearGradient id="C" x1="28" y1="65" x2="28" y2="84" href="#J"><stop stop-color="#ffa700"/><stop offset="1" stop-color="red"/></linearGradient><linearGradient id="D" x1="289.929" y1="4.5" x2="246.05" y2="4.5" href="#J"><stop stop-color="#6a4500"/><stop offset="1" stop-color="#d8a956"/></linearGradient><linearGradient id="E" x1="103" y1="4.5" x2="146.878" y2="4.5" href="#J"><stop stop-color="#6a4500"/><stop offset="1" stop-color="#d8a956"/></linearGradient><linearGradient id="F" x1="-5.423" y1="29.5" x2="118.122" y2="29.5" href="#J"><stop stop-color="#ab750f"/><stop offset=".516" stop-color="#d8a956"/><stop offset="1" stop-color="#ab750f"/></linearGradient><linearGradient id="G" x1="398.423" y1="29.5" x2="274.878" y2="29.5" href="#J"><stop stop-color="#ab750f"/><stop offset=".516" stop-color="#d8a956"/><stop offset="1" stop-color="#ab750f"/></linearGradient><linearGradient id="H" x1="63.047" y1="72.5" x2="323.982" y2="72.5" href="#J"><stop stop-color="#ab750f"/><stop offset=".516" stop-color="#d8a956"/><stop offset="1" stop-color="#ab750f"/></linearGradient><linearGradient id="I" x1="193.7" y1="33.045" x2="203.029" y2="42.75" href="#J"><stop stop-color="#ab750f"/><stop offset=".484" stop-color="#d8a956"/><stop offset="1" stop-color="#ab750f"/></linearGradient><linearGradient id="J" gradientUnits="userSpaceOnUse"/></defs></svg>
